X:22
T:Le retour du marin
R:Chanson
O:France
B:Le livre des Chansons (Henri Davenson) n°22
Z:<anamnese@caramail.com> -- http://anamnese.fr.st
N:Il doit y avoir une erreur dans la partition,
N:à l'avant dernière mesure, que j'ai essayé de corriger.
N:la mesure à l'origine était ainsi :
N:%    |G2 D E-D C2|
M:6/8
L:1/8
Q:1/4=110
K:F
C D E | F3 G A F | G2-F E2 G |F3 z2 F | B2 B A2 A |!
c2 A G z A-|B2 G-A2 F-|G2 D E-D C | F3-F2 z ||
W:Brave marin revient de guerre
W:Tout doux
W:Tout mal chaussé tout mal vêtu :
W:"Brave marin d'où reviens-tu ?
W:Tout doux
W:
W:- Madame je reviens de guerre ;
W:Qu'on m'apporte ici du vin blanc,
W:Que le marin boive en passant." /.../

